assets/src/svg/individual/menu.svg

<svg xmlns="http://www.w3.org/2000/svg" width="20" height="20" fill="none"><path fill="#000" fill-rule="evenodd" d="M1 4v2h18V4H1Zm0 7h18V9H1v2Zm0 5h18v-2H1v2Z" clip-rule="evenodd"/></svg>

<svg width="20" height="20" viewBox="0 0 20 20" fill="none" xmlns="http://www.w3.org/2000/svg">
    <path fill-rule="evenodd" clip-rule="evenodd" d="M1 4V6H19V4H1ZM1 11H19V9H1V11ZM1 16H19V14H1V16Z" fill="black"/>
</svg>
